icons/lerna.svg

<svg version="1.0" viewBox="0 0 24 24" xmlns="http://www.w3.org/2000/svg"><path d="m 2.576,12.01 5.42,-1.003 -2.859,2.54 c -0.32,0.32 -0.085,0.939 0.363,0.854 2.326,-0.406 4.63,-0.406 6.914,-0.406 -0.299,-0.832 -0.427,-1.708 -0.427,-2.604 V 10.089 L 8.273,7.357 C 7.527,6.866 6.545,6.909 5.862,7.506 L 2.192,11.135 c -0.384,0.32 -0.107,0.961 0.384,0.875 z M 19.988,13.077 16.83,11.498 C 16.339,11.263 15.998,10.73 15.998,10.175 V 9.022 h 2.006 l 0.875,0.704 c 0.192,0.192 0.448,0.299 0.704,0.299 h 0.96 c 0.384,-1.3e-5 0.725,-0.213 0.896,-0.555 l 0.448,-0.896 c 0.171,-0.342 0.128,-0.747 -0.085,-1.046 L 19.476,4.412 C 19.284,4.155 18.985,4.006 18.665,4.006 h -7.404 c -0.213,0 -0.341,0.277 -0.171,0.427 l 1.92,1.58 -1.856,0.768 c -0.192,0.085 -0.192,0.363 0,0.448 l 1.856,0.768 V 11.391 c 0,2.263 0.448,2.689 1.003,3.458 C 10.258,14.828 4.795,14.806 3.451,16.066 2.768,16.685 2,19.182 2,19.438 c 0,0.299 0.256,0.555 0.555,0.555 H 18.153 c 1.984,0.043 3.755,-1.451 3.841,-3.436 0.085,-1.473 -0.704,-2.818 -2.006,-3.479 z m -2.689,-7.001 1.43,0.363 c -0.085,0.342 -0.384,0.598 -0.747,0.576 -0.405,-0.021 -0.811,-0.384 -0.683,-0.918 z" fill="#5e35b1" /></svg>

<svg version="1.0" viewBox="0 0 24 24" xmlns="http://www.w3.org/2000/svg"><path d="M 11.262 4.006 C 11.049 4.006 10.92 4.284 11.09 4.434 L 13.01 6.014 L 11.154 6.781 C 10.962 6.866 10.962 7.144 11.154 7.229 L 13.01 7.996 L 13.01 11.391 C 13.01 13.654 13.459 14.081 14.014 14.85 C 10.259 14.829 4.795 14.806 3.451 16.066 C 2.768 16.685 2 19.182 2 19.438 C 2 19.737 2.256 19.992 2.555 19.992 L 18.152 19.992 C 20.136 20.035 21.908 18.542 21.994 16.557 C 22.079 15.084 21.29 13.739 19.988 13.078 L 19.988 13.076 L 16.83 11.498 C 16.339 11.263 15.998 10.731 15.998 10.176 L 15.998 9.021 L 18.004 9.021 L 18.879 9.727 C 19.071 9.919 19.326 10.025 19.582 10.025 L 20.543 10.025 C 20.927 10.025 21.268 9.813 21.439 9.471 L 21.887 8.574 C 22.058 8.232 22.016 7.826 21.803 7.527 L 19.477 4.412 C 19.285 4.155 18.984 4.006 18.664 4.006 L 11.262 4.006 z M 17.102 5.865 L 17.982 6.102 L 18.863 6.338 C 18.757 6.737 18.396 7.015 17.982 7.016 C 17.477 7.016 17.068 6.607 17.068 6.102 C 17.069 6.022 17.08 5.942 17.102 5.865 z M 7.043 7.023 C 6.619 7.047 6.203 7.207 5.861 7.506 L 2.191 11.135 C 1.807 11.455 2.085 12.096 2.576 12.01 L 7.996 11.008 L 5.137 13.547 C 4.817 13.867 5.052 14.485 5.5 14.4 C 7.826 13.994 10.13 13.994 12.414 13.994 C 12.115 13.162 11.986 12.287 11.986 11.391 L 11.986 10.09 L 8.273 7.357 C 7.9 7.112 7.467 6.999 7.043 7.023 Z" fill="#5c6bc0" /></svg>
